X:1
T:James Gibb editions
T:Devon, O Devon - Stanford
T:#
%%score 1 [ 2 3 ] { ( 4 6 ) | 5 }
L:1/8
Q:1/4=108
M:4/4
K:Bb
V:1 bass nm="Voice"
V:2 treble nm="Tenor" snm="T"
V:3 treble nm="Bass" snm="B"
V:4 treble nm="Piano"
V:6 treble 
V:5 bass 
V:1
"^Henry Newbolt\n(1862-1938)""^Charles Villiers Stanford\n(1852-1924)" z8"^Allegro con fuoco" | %1
w: |
"^Devon, O Devon, in wind and rain, Op. 91:3" z12 |!mf! G,2 G,F, G,2 G,2 | (G,A,B,)A, G,2 F,2 | %4
w: |Drake in the North Sea|grim\- * * ly prowl- ing,|
[M:4/4] G,2 G,A, (B,CD)C | B,2 A,2 G,4 | B,2 B,A, B,2 B,2 | (B,C_D)C B,2 _A,2 | C2 B,2 _A,2 G,2 | %9
w: Tread- ing his dear * * Re-|ven- ge's deck,|Watch'd, with the sea- dogs|round * * him growl- ing,|Gal- leons drift- ing|
 F,2 E,2 F,4 | z8 |!f! B, F,2 A, B,3 A, | .B,2 .C2 F,4 | C G,2 =B, C2 G, z | C2 D2 G,4 | %15
w: wreck by wreck.||"Fet- ter and Faith for|Eng- land's neck,|Fag- got and Fa- ther,|Saint and chain,|
!<(! (G,A,)B,C!<)! D B,2 B, | (E2 D2 C2) B,2 | (_A,2 G,2 F,2) E,2 ||[M:4/4] z4 DB, z C | %19
w: Yon\- * der the De- vil and|all * * go|howl\- * * ing,|De- von, O|
 DB, z C D2 C2 | D8- | D2 z2 z4 | z8 |!p! G,2 G,F, G,2 G,2 | (G,A,B,)A, G,2 F,2 | %25
w: De- von, in wind and|rain!"|||Drake at the last off|Nom\- * * bre ly- ing,|
 G,2 G,A, (B,CD)C | B,2 A,2 G,4 | B,2 B,A, B,2 B,2 | (B,C_D)C B,2 _A,2 | C2 B,C _A,3 G, | %30
w: Know- ing the night * * that|t'ward him crept,|Gave to the sea- dogs|round * * him cry- ing|This for a sign be-|
 F,2 E,2 F,4- | z8 |!f! B,2 B,A, B,3 A, | B,B, C2 F,4 | CC (C=B,) C3 B, | C2 D2 G,4 | %36
w: fore he slept:||"Pride of the West! What|De- von hath kept,|De- von shall * keep on|tide or main;|
 (G,A,)B,C!<(! D4-!<)! | D2 B,2!<(! (E2 D2!<)! | E2 D2 C2) B,2 | (_A,2 G,2 F,2) E,2 | z4 DB, z C | %41
w: Call * to the storm|* and drive *|* * * them|fly\- * * ing,|De- von, O|
 DB, z C D2 C2 | D8- | D2 z2 z4 | z12 |!mp! G,2 G,F, G,2 G,2 | (G,2 A,2 B,2) A,2 | G,4 F,4 | %48
w: De- von, in wind and|rain!"|||Va- lour of Eng- land|gaunt * * and|white- ning,|
 G,2 G,A, (B,C) D2 | B,2 A,2 G,4 | B,2 B,A, B,2 B,2 | (B,2 C2) (_D2 C2) | %52
w: Far in a South\- * land|brought to bay,|Locked in a death- grip|all * day *|
 B,4"^rit."[Q:1/4=105] _A,4 | %53
w: tight- 'ning,|
[Q:1/4=105][Q:1/4=102] B,2[Q:1/4=100] _A,[Q:1/4=99]B,[Q:1/4=97] _G,3[Q:1/4=96] A, | %54
w: Wait- ed the end in|
[Q:1/4=105][Q:1/4=105] F,6 E,2 |"^accel."[Q:1/4=105] F,8 | z8 |!f!"^a tempo" B, F,2 A, B,2 F,A, | %58
w: twi- light|gray.||Bat- tle and storm and the|
[Q:1/4=108][Q:1/4=96] B,2[Q:1/4=99] C2[Q:1/4=102] F,4[Q:1/4=98][Q:1/4=101][Q:1/4=104][Q:1/4=105][Q:1/4=107] | %59
w: sea- dog's way!|
[Q:1/4=108][Q:1/4=108][Q:1/4=108] C2 G,=B, C2 G,2 |[Q:1/4=108] C3 D G,4 |!ff! G,3 A, B,2 C2 || %62
w: Drake from his long rest|turn'd a- gain,|Vic- t'ry lit thy|
 D8- || D2 .=B,2 .=E2 .A,2 || z8 | D=B, z C DB, z C | (D2 _E2"^rall."[Q:1/4=106] D2[Q:1/4=104] C2 | %67
w: steel|* with light- ning,||De- von, O De- von, in|wind * * *|
[Q:1/4=102] D2[Q:1/4=10][Q:1/4=10][Q:1/4=100]{CD} C[Q:1/4=99]=B,)"^,"[Q:1/4=97] A,3[Q:1/4=96] G, | %68
w: * * * * and|
"^a tempo"[Q:1/4=108] G,8 | z8 | z8 | !fermata!z8 |] x8 | x8 |] %74
w: rain!||||||
V:2
[K:C] z8 | z12 | z8 | z8 |[M:4/4] z8 | z8 | z8 | z8 |[M:4/4] z8 | z8 | z8 | z8 | z8 |[M:4/4] z8 | %14
w: ||||||||||||||
 z8 | z8 | z8 | z8 ||[K:Bb][M:4/4][K:treble-8] z4!mf! dB z c | dB z c d2 c2 | d8- | d2 z2 z4 | z8 | %23
w: ||||De- von, O|De- von, in wind and|rain!"|||
[M:4/4] z8 | z8 | z8 | z8 |[M:4/4] z8 | z8 | z8 | z8 | z8 |[M:4/4] z8 | z8 | z8 | z8 | %36
w: |||||||||||||
[M:4/4][K:treble-8] z4!p! ^F2 GA |!<(! (Bc) d2 (e2!<)! d2 |!f! e2 d2 c2) B2 | (_A2 G2 F2) E2 | %40
w: Call to the|storm * and drive *|* * * them|fly\- * * ing,|
 z4 dB z c | dB z c d2 c2 | d8- | d2 z2 z4 | z8 x4 | x8 |[M:4/4] z8 | z8 | z8 | z8 |[M:4/4] z8 | %51
w: De- von, O|De- von, in wind and|rain!"|||||||||
 z8 | z8 | z8 |[M:4/4] z8 | z8 | z8 | z8 | z8 |[M:4/4] z8 | z8 | z8 || z8 || %63
w: ||||||||||||
[K:G][M:4/4][K:treble-8]!f! G3 A B2 c2 ||!<(! .d2 .e2!<)! .[ea]2 .A2 | z8 |!ff! dB z c dB z c | %67
w: Vic- t'ry lit thy|steel with light- ning,||De- von, O De- von, in|
 (d2 _e2"^rall." d2 c2 | d2 cB"^," A3) G | G8 | z8 | z8 |] !fermata!z8 | x8 |] %74
w: wind * * *|* * * * and|rain!|||||
V:3
[K:C] z8 | z12 | z8 | z8 |[M:4/4] z8 | z8 | z8 | z8 |[M:4/4] z8 | z8 | z8 | z8 | z8 |[M:4/4] z8 | %14
w: ||||||||||||||
 z8 | z8 | z8 | z8 ||[K:Bb][M:4/4][K:bass] z4!mf! B,G, z C | B,G, z C B,2 C2 | G,8- | G,2 z2 z4 | %22
w: ||||De- von, O|De- von, in wind and|rain!"||
 z8 |[M:4/4] z8 | z8 | z8 | z8 |[M:4/4] z8 | z8 | z8 | z8 | z8 |[M:4/4] z8 | z8 | z8 | z8 | %36
w: ||||||||||||||
[M:4/4] z4!p! D,2 =E,^F, |!<(! (G,A,) B,2 ([G,B,]2!<)! [_A,_C]2 | %38
w: Call to the|storm * and drive *|
!f! [G,B,]2- B,2 !courtesy!=C2) B,2 | (_A,2 G,2 F,2) E,2 | z4 B,G, z C | B,G, z C B,2 C2 | G,8- | %43
w: * * * them|fly\- * * ing,|De- von, O|De- von, in wind and|rain!"|
 G,2 z2 z4 | z8 x4 | x8 |[M:4/4] z8 | z8 | z8 | z8 |[M:4/4] z8 | z8 | z8 | z8 |[M:4/4] z8 | z8 | %56
w: |||||||||||||
 z8 | z8 | z8 |[M:4/4] z8 | z8 | z8 || z8 ||[K:G][M:4/4]!f! G,3 A, B,2 C2 || %64
w: |||||||Vic- t'ry lit thy|
!<(! D2 .[B,D]2!<)! .[A,C]2 .A,2 | z8 |!ff! DB, z C DB, z C | (D2 _E2"^rall." D2 C2 | %68
w: steel with light- ning,||De- von, O De- von, in|wind * * *|
 D2 CB,"^," A,3) G, | G,8 | z8 | z8 |] !fermata!z8 | x8 |] %74
w: * * * * and|rain!|||||
V:4
!p!!<(! .[B,D]2 .[A,D]2 .[B,D]2 .[A,D]2!<)! |!>(! .[B,D]2 .[A,D]2 .[B,D]2 .[A,D]2!>)! x4 | %2
!p! .[B,D]2 .[A,D]2 .[B,D]2 .[A,D]2 | ([B,D]A,[G,D]A,) .[B,D]2 .[A,D]2 | x8 | %5
[M:4/4] [B,D]2 [B,D]A, [B,D]A,G,E | [B,D]2 [A,DA]2 [G,DG]4 | .[_DF]2 .[CF]2 .[DF]2 .[CF]2 | %8
 ([_DF]C[B,F]C) .[DF]2 .[CF]2 | .[E_Ac]2 .[EGB]2 .[CEA]2 .[B,EG]2 | %10
 .[!courtesy!=A,CF]2!<(! .[G,CE]2 [A,CF]4!<)! |!f! .[FAcf]2 .[EGce]2 [FAcf]2 .F2 | %12
!p! .[B,DFB]2 .[B,D].[CF] .[B,DFB]2 .[B,D].[CF] | .[DFB]2 .[CGBc]2 !>![A,CF]4 | %14
 .[CEGc]2 .[CE].[DG] .[CEGc]2 .[CE].[DG] | .[EGc]2 .[DAd]2!<(! !>![B,EG]4!<)! | %16
 B z z2 z2!f! [FBf] z |"^stacc." .E.G.B.d .C.E.G.B || ._A,.C.E.G .F,.!courtesy!_A,.C.E | %19
[M:4/4]!mf! .[GBd]2 .[Gcg]2 .[GBd]2 .[Gcg]2 | .[GBd]2 .[Gcg]2 .[GBd]2 .[Gc=eg]2 | %21
 [GBd]D z d [GB]!>(!D z B | [DG]B, z G [B,D]G, z!>)! [A,D] |!p! [B,D]2- [A,D] z [B,D]2- [A,D] z | %24
!pp! [B,D]2- [A,D] z [B,D]2- [A,D] z | [B,D]A,[G,D]A, [B,D]2 [A,D]2 | ([B,DG]3 [CA]!pp! B3 A | %27
 =EG[!courtesy!=C^F]A G_EDC) | ([_DF]2- [CF]) z [DF]2- [CF] z | F8 | ([CE_A]2- [B,EG]2 E4) | %31
 ([E,!courtesy!=A,C]2 [G,CE]2!<(! [A,CF]4)!<)! |!f! .[FAcf]2 .[EGce]2 .[FAcf]2 .F2 | %33
!p! .[A,DFB]2 .[B,D].[CF] .[DFB]2 .[B,D].[CF] | .[DFB]2 .[CGBc]2 [A,CF]4 | %35
 .[CEGc]2 .[CE].[DG] .[EGc]2 .[CE].[DG] | .[EGc]2 .[DAd]2 [B,EG]4 | B z z2 z[I:staff +1] ^F,G,A, | %38
[I:staff -1] B,C!<(!DF GBA_c!<)! |!f! .[GBe]2 .[FBd]2 .[EGc]2 .[DGB]2 | %40
 .[CE_A]2 .[B,EG]2 .[_A,CF]2 .[G,CE]2 | (3(D,G,B, (3DGB d) z .[Gcg]2 | %42
 .[GBd]2 .[Gcg]2 .[GBd]2 .[Gc=eg]2 | [Bdg]G z g [GBd]D z d | %44
!>(! [DGB]B, z B [B,DG][E,G,] z!>)! G x4 |!p! D4 D4 | x8 | D4 D4 | %48
 z!pp! [B,EG] z [CEA] z [DFB] z [CFA] | z [B,EG] z [CEG] z [F,DF] z [F,B,F] | %50
 z [G,B,G] z [A,EF] z [B,DF] z [B,FB] | z [B,CG] z [A,CD] z [G,B,]DG | F4 F4 | %53
 z [_DFB] z [E_Ac] z [DA_d] z [EAc] | z [B,FB][B,_GB] z z [_A,E_A]"^rit.".[A,FA] z | %55
 z [_G,_D_G][G,EG] z z [G,EG][G,DG] z | %56
[I:staff +1] [F,_DF]2 [_G,CE]2 [F,B,!courtesy!_D]2 [E,B,C]2 |[I:staff -1] [F,A,C]2 z2 z4 | %58
[I:staff +1] F,C!<(!C[I:staff -1]F Fccf!<)! |!f! [FBf] z [CEF] z [FBf] z [CEF] z | DF=EG FAcf | %61
 [Gceg] z [DFG] z [Gceg] z [DFG] z || EGFA GBeg || b z z2 z2!f! .[GAc]2 || %64
 .[G=Bd]2 .[Gcg]2 .[GBd]2 .[=E^FA]2 | .[DGd]2 .[D^G=B]2!ff! .[=EGBd=e]2 .[EA]2 | %66
[K:bass] z z/ (C,/ A,,/C,/=E,/G,/-[K:treble] A,/C/=E/G/ A/c/=e/g/) | %67
 !tenuto![dgc']2 !tenuto![c=eg]2 !tenuto![=Bdg]2 !tenuto![Gce]2 | %68
 !tenuto![DG=Bd]2 (d"^rall."c [D=F_B]2) (AG | [A,C^F]2) [G,!courtesy!=EG]2 [A,-EG-]2 [A,CF] z | %70
!ff! [=Bdg]"^a tempo"G z [Adg] [_Ac=f]=F z [Acf] | [G=Bd]D z [GBd] [_E!courtesy!^Fc]C z [EFc] |] %72
 [=B,DG]G, z [A,C^F] [B,DG]G, z [A,CF] | .G,2 .[G=Bdg]2 !fermata!z4 |] %74
V:5
!p! .G,,.B,,.D,.D,, .G,,.B,,.D,.D,, | .G,,.B,,.D,.D,, .G,,.B,,.D,.D,, x4 | %2
!p!!p! .G,,.B,,.D,.D,, .G,,.B,,.D,.D,, | .G,,.B,,.D,.D,, .G,,.B,,.D,.D,, | x8 | %5
[M:4/4] .G,,.B,,.D,.D,, .G,,.A,,.B,,.C, | D,C,D,D,, G,,D,,D,,G,,, | .B,,._D,.F,.F,, B,,D,F,F,, | %8
 B,,_D,F,F,, B,,D,F,F,, | _A,,C,E,E,, A,,C,E,E,, | F,,!courtesy!=A,,!<(!C,C,, F,,A,,C,!<)!E, | %11
!f! F,A,CC, F,C,C,F,, |!p! B,,D,F,F,, B,,D,F,F,, | D,,F,,E,,G,, F,,A,,C,F, | C,E,G,G,, C,E,G,G,, | %15
 E,,G,,F,,A,,!<(! G,,!<)!B,,E,G, | B, z z2 z2!f! [D,D] z | .E,.G,.B,.D .C,.E,.G,.B, || %18
 ._A,,.C,.E,.G, .F,,.A,,.C,.E, |[M:4/4]!mf! .[D,G,B,]2 .[C,G,D]2 .[D,G,A,B,]2 .[C,G,C]2 | %20
 .[D,G,B,]2 .[C,G,C]2 .[D,G,B,]2 .[C,=E,G,C]2 | [G,,D,]2 D,,2 G,,2 D,,2 | G,,2- D,,2 G,,2 D,,2 | %23
!p! G,,B,,D,D,, G,,B,,D,D,, |!pp! G,,B,,D,D,, G,,B,,D,D,, | G,,B,,D,D,, G,,B,,D,D,, | %26
 (G,,G,F,E, D,C,B,,C, | ^C,=E,D,^F, _E,=C,B,,A,,) | .B,,._D,.F,.F,, .B,,.D,.F,.F,, | %29
 .B,,._D,.F,.F,, B,,D,F,F,, | _A,,C,E,E,, A,,C,E,E,, | F,,!courtesy!=A,,C,C,,!<(! F,,A,,C,E,!<)! | %32
!f! F,A,CC, F,C,C,F,, |!p! B,,D,F,F,, B,,D,F,F,, | D,,F,,E,,G,, F,,A,,C,F, | C,E,G,G,, C,E,G,G,, | %36
 E,,G,,F,,A,, G,,B,,E,G, | B, z z2 z ((D,,=E,,^F,, | G,,A,,B,,D, E,G,F,_A,)) | %39
!f! .G,.!courtesy!=A,.B,.B,, .E,.F,.G,.G,, | C,D,E,E,, _A,,B,,C,C,, | %41
 (3(D,,G,,B,, (3D,G,B,) D z .[C,G,C]2 | .[D,G,B,]2 .[C,G,C]2 .[D,G,B,]2 .[C,=E,G,C]2 | %43
 .[G,,D,]2 .D,,2 .[G,,D,]2 .D,,2 |!>(! .[G,,D,]2 .D,,2 .[G,,D,]2 .D,,2!>)! x4 | %45
!p! .G,,.B,,.D,.D,, G,,B,,D,D,, | x8 | G,,B,,D,D,, G,,B,,D,D,, | %48
!pp! .E,,2 .[C,,C,]2 .[B,,,B,,]2 .[F,,,F,,]2 | .[G,,,G,,]2 .[A,,,A,,]2 .[B,,,B,,]2 .[D,,D,]2 | %50
 .[E,,E,]2 .[E,,E,].[C,,C,] .[B,,,B,,]2 .B,,.D, | C,=E,D,^F, G,D,B,,G,, | B,,_D,F,F,, B,,D,F,F,, | %53
 .[B,,,B,,]2 .[_A,,,_A,,]2 .[F,,,F,,]2 .[A,,,A,,]2 | .[_D,,_D,]2 .[E,,E,]2 .[C,,C,]2 .[D,,D,]2 | %55
 .[B,,,B,,]2 .[C,,C,]2 .[_C,,_C,]2 .[B,,,B,,]2 | %56
 ((.[_A,,,_A,,]2 .[=A,,,=A,,]2 .[B,,,B,,]2 .[_G,,,_G,,]2)) | F,,,C,,C,,F,,"^accel." F,,C,C,F, | %58
 F,,C,C,F, F, z [F,A,E] z |!f! [F,B,D] z [F,,F,] z [F,B,D] z [F,,F,] z | D,,F,,=E,,G,, F,,A,,C,F, | %61
 [G,CE] z [G,,D,F,G,] z [G,CE] z [G,,D,F,G,] z || E,,G,,F,,A,, G,,B,,E,G, || %63
 B, z z2 z2!f! .[E,G,A,C]2 || .[D,G,=B,]2 .[=E,G,C]2 .[D,G,B,]2 .[C,^F,A,]2 | %65
 .[=B,,G,=B,]2 .[=E,^G,B,]2 [C,,C,]2 [C,C]2 | %66
 z z/ (C,,/ A,,,/C,,/=E,,/G,,/ A,,/C,/=E,/G,/ A,/C/=E/G/) | x4 x2 !tenuto![G,C=E]2 | %68
 !tenuto![D,G,=B,]2 [C,_E,G,]2 [=F,,=F,]2 ([_E,,!courtesy!_E,]2 | %69
 [D,,D,]2) [=E,,=E,]2 ([C,,C,]2 [D,,D,]) z | !>![G,,,G,,]2 .D,.G, !>![D,,D,]2 .=F,._A, | %71
 !>![G,,,G,,]2 .D,.G, !>![C,,C,]2 .!courtesy!^F,.=A, |] [G,,,G,,]2 [_E,,_E,]2 [G,,,G,,]2 [E,,E,]2 | %73
 .[^F,,,G,,]2 [D,G,=B,D]2 !fermata!z4 |] %74
V:6
 x8 | x12 | x8 | x8 | x8 |[M:4/4] x8 | x8 | x8 | x8 | x8 | x8 | x8 | x8 | x8 | x8 | x8 | x8 | x8 || %18
 x8 |[M:4/4] x8 | x8 | x8 | x8 | x8 | x8 | x8 | x4 FEDE | x4 x4 | x4 x4 | (DCB,C _D2 C2) | %30
 x4 [_A,C]3 [G,B,] | x8 | x8 | x8 | x8 | x8 | x8 | x8 | x8 | x8 | x8 | x8 | x8 | x8 | x8 x4 | %45
 (B,2 A,2) (B,2 A,2) | x8 | (B,2 A,2) (B,2 A,2) | x4 x4 | x4 x4 | x4 x4 | x4 x4 | %52
 (_D2 C2) (D2 C2) | x8 | x8 | x8 | x8 | x8 | x8 | x8 | x8 | x8 || x8 || x8 || x8 | x8 | %66
[K:bass] x8[K:treble] | !tenuto![DG=B]2 !tenuto![C=EG]2 !tenuto![=B,DG]2 x2 | %68
 x2 [_EG]2 x2 [A,C]2- | [A,C]2 x2 x4 | x8 | x8 |] x8 | x8 |] %74

